X: 128
T: Loch Earn
T: Reel, G
C: Niel Gow
L: 1/16
M: C|
K: G
|: f2| g4d2B2 G2A2B2G2| E4A2G2 F2D2D2f2| g4d2B2 G2A2B2G2| E2A2F2D2 G4G2:| 
f2| e2f2g2e2 f2g2a2f2| g2f2e2g2 f2d2d4| e2f2g2e2 f2g2a2f2| g2f2e2d2 g4g4| 
f2a2g2e2 d2B2G2B2| c2a2B2g2 A2G2F2D2| G2A2B2G2 E2A2c2e2| d2B2c2A2 G4G2|| 
D: Donald Angus Beaton, A Musical Legacy, DAB4-1985
D: Stephanie Wills, Tradition Continued, STEPH 1-94
